svg/fluentui-system-icons/ic_fluent_compass_northwest_24_regular.svg

<svg width="24" height="24" viewBox="0 0 24 24" fill="none" xmlns="http://www.w3.org/2000/svg">
<path d="M3.5 12C3.5 7.30558 7.30558 3.5 12 3.5C16.6944 3.5 20.5 7.30558 20.5 12C20.5 16.6944 16.6944 20.5 12 20.5C7.30558 20.5 3.5 16.6944 3.5 12ZM12 2C6.47715 2 2 6.47715 2 12C2 17.5228 6.47715 22 12 22C17.5228 22 22 17.5228 22 12C22 6.47715 17.5228 2 12 2ZM7.08349 8.70767C6.67722 7.6882 7.68791 6.67747 8.7074 7.08372L12.7356 8.68888C13.9078 9.15602 14.8461 10.0704 15.3431 11.2303L17.1969 15.5557C17.6414 16.5929 16.5927 17.6415 15.5555 17.197L11.2301 15.3433C10.0703 14.8462 9.15587 13.908 8.68872 12.7358L7.08349 8.70767ZM8.69209 8.69233L10.0822 12.1805C10.4018 12.9825 11.0274 13.6245 11.821 13.9646L15.572 15.5721L13.9644 11.8212C13.6243 11.0276 12.9824 10.4019 12.1803 10.0823L8.69209 8.69233Z" fill="#212121"/>
</svg>

<svg xmlns="http://www.w3.org/2000/svg" width="24" height="24"><path d="M3.5 12a8.5 8.5 0 1 1 17 0 8.5 8.5 0 0 1-17 0ZM12 2C6.477 2 2 6.477 2 12s4.477 10 10 10 10-4.477 10-10S17.523 2 12 2ZM7.083 8.708c-.406-1.02.605-2.03 1.624-1.624l4.029 1.605a4.75 4.75 0 0 1 2.607 2.541l1.854 4.326c.444 1.037-.604 2.086-1.641 1.641l-4.326-1.854a4.75 4.75 0 0 1-2.541-2.607L7.083 8.708Zm1.61-.016 1.39 3.489a3.25 3.25 0 0 0 1.738 1.784l3.751 1.607-1.608-3.75a3.25 3.25 0 0 0-1.784-1.74l-3.488-1.39Z"/></svg>
